Yaru++/mimetypes/16/application-vnd.snap.svg

<svg height="16" width="16" xmlns="http://www.w3.org/2000/svg" xmlns:xlink="http://www.w3.org/1999/xlink"><linearGradient id="a" gradientUnits="userSpaceOnUse" x1="328" x2="328" y1="237" y2="251"><stop offset="0" stop-color="#fff"/><stop offset=".125" stop-color="#fff" stop-opacity=".098039"/><stop offset=".92500001" stop-color="#fff" stop-opacity=".098039"/><stop offset="1" stop-color="#fff" stop-opacity=".498039"/></linearGradient><clipPath id="b"><path d="m325.09646 237c-2.80769 0-3.10979.28839-3.09603 3.10176v3.89824 3.89824c-.0138 2.81337.28834 3.10176 3.09603 3.10176h5.8075c2.8077 0 3.09604-.28835 3.09604-3.10176v-3.89824-3.89824c0-2.8134-.28835-3.10176-3.09604-3.10176z"/></clipPath><path d="m10.904349.50000002c.710481 0 1.273441.0154 1.751951.0957s.89671.23728 1.20703.54687998c.31032.30959.46726.7261.54688 1.20508.0796.47897.0933 1.04352.0898 1.7558604v3.89648 3.8984396c.003.71121-.0103 1.27546-.0898 1.7539-.0796.47898-.23655.89549-.54688 1.20508-.31033.3096-.72851.46655-1.20703.54688-.47852.0803-1.04147.0957-1.751951.0957h-5.8085992c-.71048 0-1.27236-.0153-1.75-.0957-.47763-.0804-.89584-.23713-1.20508-.54688-.30921-.30975-.46469-.72681-.54492-1.20508-.0802-.47826-.0957-1.04201-.0957-1.7539v-3.8984396-3.89844c0-.7118904.0155-1.2756404.0957-1.7539004.0802-.47827.2357-.89533.54492-1.20508.30924-.30974998.72745-.46649998 1.20508-.54687998.47764-.0804 1.03952-.0957 1.75-.0957z" fill="#4b6d5d"/><g stroke-width=".163924"><path d="m3.0004398 3.31456 5.42005 5.4200604v-3.46595z" fill="#8bcbab"/><path d="m9.2409098 5.2930204 3.7595302 1.68998-.82762-1.68998z" fill="#fc6542"/><path d="m8.7534598 5.4169204v3.14977l2.2605202-2.12221z" fill="#8bcbab"/><path d="m7.1380698 7.9587004-2.50464 4.7267396 3.63323-3.6333796z" fill="#8bcbab"/></g><path d="m8.0004998 1v14h2.9042992c2.807701 0 3.095701-.28815 3.095701-3.10156v-3.8984396-3.89844c0-2.8134004-.28801-3.1015604-3.095701-3.1015604z" fill="#fff" opacity=".08"/><path d="m2.0004998 8.0000004v3.8984396c-.0138 2.81337.28801 3.10156 3.0957 3.10156h5.8085992c2.807701 0 3.095701-.28815 3.095701-3.10156v-3.8984396z" fill="#fff" opacity=".08"/><path d="m5.0961998.50000002c-.71048 0-1.27344.0154-1.75195.0957s-.89671.23728-1.20703.54687998c-.31032.30959-.46726.7261-.54688 1.20508-.0796.47897-.0933 1.04352-.0898 1.7558604v3.89648 3.8984396c-.003.71121.0103 1.27546.0898 1.7539.0796.47898.23655.89549.54688 1.20508.31033.3096.72851.46655 1.20703.54688.47852.0803 1.04147.0957 1.75195.0957h5.8085992c.710481 0 1.272361-.0153 1.750001-.0957.47763-.0804.89584-.23713 1.20508-.54688.30921-.30975.46469-.72681.54492-1.20508.0802-.47826.0957-1.04201.0957-1.7539v-3.8984396-3.89844c0-.7118904-.0155-1.2756404-.0957-1.7539004-.0802-.47827-.2357-.89533-.54492-1.20508-.30924-.30974998-.72745-.46649998-1.20508-.54687998-.47764-.0804-1.03952-.0957-1.750001-.0957z" fill="none" opacity=".3" stroke="#000"/><path clip-path="url(#b)" d="m325.09646 237c-2.80769 0-3.10979.28839-3.09603 3.10176v3.89824 3.89824c-.0138 2.81337.28834 3.10176 3.09603 3.10176h5.8075c2.8077 0 3.09604-.28835 3.09604-3.10176v-3.89824-3.89824c0-2.8134-.28835-3.10176-3.09604-3.10176z" fill="none" opacity=".4" stroke="url(#a)" stroke-width="2" transform="translate(-319.9995 -236)"/></svg>

<?xml version="1.0" encoding="UTF-8" standalone="no"?>
<svg
   xmlns:dc="http://purl.org/dc/elements/1.1/"
   xmlns:cc="http://creativecommons.org/ns#"
   xmlns:rdf="http://www.w3.org/1999/02/22-rdf-syntax-ns#"
   xmlns:svg="http://www.w3.org/2000/svg"
   xmlns="http://www.w3.org/2000/svg"
   xmlns:xlink="http://www.w3.org/1999/xlink"
   xmlns:sodipodi="http://sodipodi.sourceforge.net/DTD/sodipodi-0.dtd"
   xmlns:inkscape="http://www.inkscape.org/namespaces/inkscape"
   height="16"
   width="16"
   version="1.1"
   id="svg31"
   sodipodi:docname="16.svg"
   inkscape:version="0.92.5 (2060ec1f9f, 2020-04-08)">
  <metadata
     id="metadata37">
    <rdf:RDF>
      <cc:Work
         rdf:about="">
        <dc:format>image/svg+xml</dc:format>
        <dc:type
           rdf:resource="http://purl.org/dc/dcmitype/StillImage" />
        <dc:title></dc:title>
      </cc:Work>
    </rdf:RDF>
  </metadata>
  <defs
     id="defs35">
    <linearGradient
       inkscape:collect="always"
       xlink:href="#linearGradient927"
       id="linearGradient993"
       x1="328"
       y1="237"
       x2="328"
       y2="251"
       gradientUnits="userSpaceOnUse" />
    <linearGradient
       inkscape:collect="always"
       id="linearGradient927">
      <stop
         style="stop-color:#ffffff;stop-opacity:1;"
         offset="0"
         id="stop923" />
      <stop
         id="stop933"
         offset="0.125"
         style="stop-color:#ffffff;stop-opacity:0.09803922" />
      <stop
         id="stop931"
         offset="0.92500001"
         style="stop-color:#ffffff;stop-opacity:0.09803922" />
      <stop
         style="stop-color:#ffffff;stop-opacity:0.49803922"
         offset="1"
         id="stop925" />
    </linearGradient>
    <clipPath
       clipPathUnits="userSpaceOnUse"
       id="clipPath983">
      <path
         sodipodi:nodetypes="scccssscsss"
         inkscape:connector-curvature="0"
         id="path985"
         d="m 325.09646,237 c -2.80769,0 -3.10979,0.28839 -3.09603,3.10176 V 244 v 3.89824 c -0.0138,2.81337 0.28834,3.10176 3.09603,3.10176 h 5.8075 C 333.71166,251 334,250.71165 334,247.89824 V 244 240.10176 C 334,237.28836 333.71165,237 330.90396,237 Z"
         style="color:#000000;display:inline;overflow:visible;visibility:visible;opacity:1;fill:#46a926;fill-opacity:1;fill-rule:nonzero;stroke:none;stroke-width:2;stroke-miterlimit:4;stroke-dasharray:none;stroke-opacity:1;marker:none;enable-background:accumulate" />
    </clipPath>
  </defs>
  <sodipodi:namedview
     pagecolor="#ffffff"
     bordercolor="#666666"
     borderopacity="1"
     objecttolerance="10"
     gridtolerance="10"
     guidetolerance="10"
     inkscape:pageopacity="0"
     inkscape:pageshadow="2"
     inkscape:window-width="1920"
     inkscape:window-height="1016"
     id="namedview33"
     showgrid="false"
     inkscape:zoom="14.75"
     inkscape:cx="8"
     inkscape:cy="8"
     inkscape:window-x="0"
     inkscape:window-y="27"
     inkscape:window-maximized="1"
     inkscape:current-layer="svg31" />
  <linearGradient
     id="a"
     gradientUnits="userSpaceOnUse"
     x1="328"
     x2="328"
     y1="237"
     y2="251">
    <stop
       offset="0"
       stop-color="#fff"
       id="stop2" />
    <stop
       offset=".125"
       stop-color="#fff"
       stop-opacity=".098039"
       id="stop4" />
    <stop
       offset=".92500001"
       stop-color="#fff"
       stop-opacity=".098039"
       id="stop6" />
    <stop
       offset="1"
       stop-color="#fff"
       stop-opacity=".498039"
       id="stop8" />
  </linearGradient>
  <clipPath
     id="b">
    <path
       d="m325.09646 237c-2.80769 0-3.10979.28839-3.09603 3.10176v3.89824 3.89824c-.0138 2.81337.28834 3.10176 3.09603 3.10176h5.8075c2.8077 0 3.09604-.28835 3.09604-3.10176v-3.89824-3.89824c0-2.8134-.28835-3.10176-3.09604-3.10176z"
       id="path11" />
  </clipPath>
  <linearGradient
     id="c"
     gradientTransform="matrix(0 -.0386186 .03904659 0 -4.527942 17.545406)"
     gradientUnits="userSpaceOnUse"
     x1="441.37933"
     x2="52.9655"
     y1="240.28154"
     y2="401.42957">
    <stop
       offset="0"
       stop-color="#fee581"
       id="stop14" />
    <stop
       offset="1"
       stop-color="#fff4c9"
       id="stop16" />
  </linearGradient>
  <path
     style="color:#000000;display:inline;overflow:visible;visibility:visible;fill:#4b6d5d;fill-opacity:1;fill-rule:nonzero;stroke:none;stroke-width:1;marker:none;enable-background:accumulate"
     d="m 10.904349,0.50000002 c 0.710481,0 1.273441,0.0154 1.751951,0.0957 0.47851,0.0803 0.89671,0.23728 1.20703,0.54687998 0.31032,0.30959 0.46726,0.7261 0.54688,1.20508 0.0796,0.47897 0.0933,1.04352 0.0898,1.7558604 v 3.89648 3.8984396 c 0.003,0.71121 -0.0103,1.27546 -0.0898,1.7539 -0.0796,0.47898 -0.23655,0.89549 -0.54688,1.20508 C 13.553,15.16702 13.13482,15.32397 12.6563,15.4043 12.17778,15.4846 11.61483,15.5 10.904349,15.5 H 5.0957498 c -0.71048,0 -1.27236,-0.0153 -1.75,-0.0957 -0.47763,-0.0804 -0.89584,-0.23713 -1.20508,-0.54688 -0.30921,-0.30975 -0.46469,-0.72681 -0.54492,-1.20508 -0.0802,-0.47826 -0.0957,-1.04201 -0.0957,-1.7539 v -3.8984396 -3.89844 c 0,-0.7118904 0.0155,-1.2756404 0.0957,-1.7539004 0.0802,-0.47827 0.2357,-0.89533 0.54492,-1.20508 0.30924,-0.30974998 0.72745,-0.46649998 1.20508,-0.54687998 0.47764,-0.0804 1.03952,-0.0957 1.75,-0.0957 z"
     id="path918"
     inkscape:connector-curvature="0" />
  <path
     inkscape:connector-curvature="0"
     style="display:inline;fill:#8bcbab;fill-opacity:1;stroke-width:0.16392392;enable-background:new"
     d="m 3.0004398,3.31456 5.42005,5.4200604 v -3.46595 z"
     id="path972" />
  <path
     inkscape:connector-curvature="0"
     style="display:inline;fill:#fc6542;fill-opacity:1;stroke-width:0.16392392;enable-background:new"
     d="m 9.2409098,5.2930204 3.7595302,1.68998 -0.82762,-1.68998 z"
     id="path970" />
  <path
     inkscape:connector-curvature="0"
     style="display:inline;fill:#8bcbab;fill-opacity:1;stroke-width:0.16392392;enable-background:new"
     d="m 8.7534598,5.4169204 v 3.14977 l 2.2605202,-2.12221 z"
     id="path968" />
  <path
     inkscape:connector-curvature="0"
     style="display:inline;fill:#8bcbab;fill-opacity:1;stroke-width:0.16392392;enable-background:new"
     d="m 7.1380698,7.9587004 -2.50464,4.7267396 3.63323,-3.6333796 z"
     id="path974" />
  <path
     style="color:#000000;display:inline;overflow:visible;visibility:visible;opacity:0.07999998;fill:#ffffff;fill-opacity:1;fill-rule:nonzero;stroke:none;stroke-width:1;marker:none;enable-background:accumulate"
     d="M 8.0004998,1 V 15 H 10.904799 C 13.7125,15 14.0005,14.71185 14.0005,11.89844 V 8.0000004 4.1015604 C 14.0005,1.28816 13.71249,1 10.904799,1 Z"
     id="path1009"
     inkscape:connector-curvature="0" />
  <path
     style="color:#000000;display:inline;overflow:visible;visibility:visible;opacity:0.07999998;fill:#ffffff;fill-opacity:1;fill-rule:nonzero;stroke:none;stroke-width:1;marker:none;enable-background:accumulate"
     d="M 2.0004998,8.0000004 V 11.89844 C 1.9866998,14.71181 2.2885098,15 5.0961998,15 H 10.904799 C 13.7125,15 14.0005,14.71185 14.0005,11.89844 V 8.0000004 Z"
     id="path1016"
     inkscape:connector-curvature="0" />
  <path
     id="path1087"
     d="m 5.0961998,0.50000002 c -0.71048,0 -1.27344,0.0154 -1.75195,0.0957 -0.47851,0.0803 -0.89671,0.23728 -1.20703,0.54687998 -0.31032,0.30959 -0.46726,0.7261 -0.54688,1.20508 -0.0796,0.47897 -0.0933,1.04352 -0.0898,1.7558604 v 3.89648 3.8984396 c -0.003,0.71121 0.0103,1.27546 0.0898,1.7539 0.0796,0.47898 0.23655,0.89549 0.54688,1.20508 0.31033,0.3096 0.72851,0.46655 1.20703,0.54688 0.47852,0.0803 1.04147,0.0957 1.75195,0.0957 h 5.8085992 c 0.710481,0 1.272361,-0.0153 1.750001,-0.0957 0.47763,-0.0804 0.89584,-0.23713 1.20508,-0.54688 0.30921,-0.30975 0.46469,-0.72681 0.54492,-1.20508 0.0802,-0.47826 0.0957,-1.04201 0.0957,-1.7539 V 8.0000004 4.1015604 C 14.5005,3.38967 14.485,2.82592 14.4048,2.34766 14.3246,1.86939 14.1691,1.45233 13.85988,1.14258 13.55064,0.83283002 13.13243,0.67608002 12.6548,0.59570002 c -0.47764,-0.0804 -1.03952,-0.0957 -1.750001,-0.0957 z"
     style="color:#000000;display:inline;overflow:visible;visibility:visible;opacity:0.3;fill:none;fill-opacity:1;fill-rule:nonzero;stroke:#000000;stroke-width:1;stroke-opacity:1;marker:none;enable-background:accumulate"
     inkscape:connector-curvature="0" />
  <path
     transform="translate(-319.9995,-236)"
     style="color:#000000;display:inline;overflow:visible;visibility:visible;opacity:0.4;fill:none;fill-opacity:1;fill-rule:nonzero;stroke:url(#linearGradient993);stroke-width:2;stroke-miterlimit:4;stroke-dasharray:none;stroke-opacity:1;marker:none;enable-background:accumulate"
     d="m 325.09646,237 c -2.80769,0 -3.10979,0.28839 -3.09603,3.10176 V 244 v 3.89824 c -0.0138,2.81337 0.28834,3.10176 3.09603,3.10176 h 5.8075 C 333.71166,251 334,250.71165 334,247.89824 V 244 240.10176 C 334,237.28836 333.71165,237 330.90396,237 Z"
     id="path937"
     inkscape:connector-curvature="0"
     sodipodi:nodetypes="scccssscsss"
     clip-path="url(#clipPath983)" />
</svg>
